build/documents/PersonCardSolid.svg

<svg xmlns="http://www.w3.org/2000/svg" fill="none" viewBox="0 0 24 24" focusable="false"><path d="M0 0H24V24H0z"/><path fill="#74767B" fill-rule="evenodd" d="M7 3C5.34315 3 4 4.34315 4 6L4 18C4 19.6569 5.34315 21 7 21L17 21C18.6569 21 20 19.6569 20 18L20 6C20 4.34315 18.6569 3 17 3L7 3ZM9.61147 9.2754C9.45917 7.862 10.572 6.63126 11.9935 6.64093C13.4052 6.65052 14.4982 7.87995 14.3424 9.28305L14.2056 10.5156C14.0786 11.6597 13.1063 12.5222 11.9552 12.5119C10.8167 12.5016 9.8663 11.6404 9.74433 10.5084L9.61147 9.2754ZM8.82395 14.8957C9.51619 14.0203 10.571 13.5096 11.6871 13.5096L12.3239 13.5096C13.4696 13.5096 14.5488 14.0476 15.2385 14.9624L15.4297 15.216C16.1003 16.1056 15.4657 17.3787 14.3517 17.3787L9.64915 17.3787C8.52074 17.3787 7.89031 16.0765 8.59019 15.1914L8.82395 14.8957Z"/></svg>

<svg xmlns="http://www.w3.org/2000/svg" fill="none" viewBox="0 0 24 24" focusable="false"><path fill="#74767B" fill-rule="evenodd" d="M7 3C5.34 3 4 4.34 4 6v12c0 1.65 1.34 3 3 3h10c1.65 0 3-1.35 3-3V6c0-1.66-1.35-3-3-3zm2.61 6.27c-.16-1.41.96-2.64 2.38-2.63a2.38 2.38 0 0 1 2.35 2.64l-.14 1.23a2.253 2.253 0 0 1-2.25 2 2.24 2.24 0 0 1-2.21-2.01zm-.79 5.62a3.67 3.67 0 0 1 2.86-1.39h.64c1.14 0 2.22.54 2.91 1.46l.19.25c.68.89.04 2.16-1.07 2.16H9.64c-1.12 0-1.75-1.3-1.05-2.18z"/></svg>
